; generated by PrusaSlicer 2.7.4+MacOS-arm64 on 2024-09-18 at 08:17:44 UTC


;
;

;
;

;
;

;
;
; 

; external perimeters extrusion width = 0.45mm
; perimeters extrusion width = 0.45mm
; infill extrusion width = 0.45mm
; solid infill extrusion width = 0.45mm
; top infill extrusion width = 0.40mm
; first layer extrusion width = 0.42mm

M73 P0 R21
M201 X2500 Y2500 Z400 E5000 ; sets maximum accelerations, mm/sec^2
M203 X180 Y180 Z12 E80 ; sets maximum feedrates, mm / sec
M204 P2000 R1250 T2500 ; sets acceleration (P, T) and retract acceleration (R), mm/sec^2
M205 X8.00 Y8.00 Z2.00 E10.00 ; sets the jerk limits, mm/sec
M205 S0 T0 ; sets the minimum extruding and travel feed rate, mm/sec

M486 S0
M486 APlug.stl
M486 S-1

;TYPE:Custom
M862.3 P "MINI" ; printer model check
G90 ; use absolute coordinates
M83 ; extruder relative mode
M104 S170 ; set extruder temp for bed leveling
M140 S60 ; set bed temp
M109 R170 ; wait for bed leveling temp
M190 S60 ; wait for bed temp
M204 T1250 ; set travel acceleration
G28 ; home all without mesh bed level
G29 ; mesh bed leveling 
M204 T2500 ; restore travel acceleration
M104 S215 ; set extruder temp
G92 E0
G1 Y-2 X179 F2400
G1 Z3 F720
M109 S215 ; wait for extruder temp

; intro line
G1 X170 F1000
G1 Z0.2 F720
G1 X110 E8 F900
G1 X40 E10 F700
G92 E0

M221 S95 ; set flow
G21 ; set units to millimeters
G90 ; use absolute coordinates
M83 ; use relative distances for extrusion

M900 K0.2 ; Filament gcode LA 1.5
; ; Filament gcode LA 1.0




M107
;LAYER_CHANGE
;Z:0.2
;HEIGHT:0.2
G1 E-3.2 F4200
M73 P1 R21
G1 Z.4 F720
G1 X70.515 Y65.193 F9000
G1 Z.2 F720
G1 E3.2 F2400
M204 P600
;TYPE:Skirt/Brim
;WIDTH:0.42
G1 F1200
G1 X71.56 Y64.317 E.04275
G1 X72.5 Y64.123 E.03009
G1 X107.5 Y64.123 E1.0974
G1 X108.807 Y64.515 E.04278
G1 X109.683 Y65.56 E.04275
G1 X109.877 Y66.5 E.03009
G1 X109.877 Y113.5 E1.47365
G1 X109.485 Y114.807 E.04278
G1 X108.44 Y115.683 E.04275
G1 X107.5 Y115.877 E.03009
G1 X72.5 Y115.877 E1.0974
G1 X71.193 Y115.485 E.04278
G1 X70.317 Y114.44 E.04275
G1 X70.123 Y113.5 E.03009
G1 X70.123 Y66.5 E1.47365
G1 X70.497 Y65.25 E.04091
M204 P1000
G1 E-2.24 F4200
;WIPE_START
G1 F7200
G1 X70.515 Y65.193 E-.03313
G1 X71.56 Y64.317 E-.75566
G1 X71.863 Y64.255 E-.17121
;WIPE_END
G1 Z.4 F720
M486 S0
G1 X73.287 Y67.287 F9000
G1 Z.2 F720
G1 E3.2 F2400
M204 P600
;TYPE:Perimeter
;WIDTH:0.419999
G1 F1200
G1 X106.713 Y67.287 E1.04805
G1 X106.713 Y84 E.52402
M73 P2 R21
G1 X106.713 Y112.713 E.90027
G1 X73.287 Y112.713 E1.04805
G1 X73.287 Y67.347 E1.42242
M204 P1000
G1 X72.91 Y66.91 F9000
M204 P600
;TYPE:External perimeter
G1 F1200
G1 X107.09 Y66.91 E1.07169
G1 X107.09 Y84 E.53584
G1 X107.09 Y113.09 E.91209
G1 X72.91 Y113.09 E1.07169
G1 X72.91 Y66.97 E1.44606
M204 P1000
G1 E-2.24 F4200
M73 P3 R21
;WIPE_START
G1 F7200
G1 X72.91 Y66.91 E-.03325
G1 X74.582 Y66.91 E-.92675
;WIPE_END
G1 Z.4 F720
G1 X105.777 Y67.457 F9000
G1 Z.2 F720
G1 E3.2 F2400
M204 P600
;TYPE:Solid infill
;WIDTH:0.421892
G1 F1200
G1 X106.374 Y68.053 E.02658
G1 X106.374 Y68.589 E.01689
G1 X105.411 Y67.626 E.04292
G1 X104.875 Y67.626 E.01689
G1 X106.374 Y69.125 E.0668
G1 X106.374 Y69.661 E.01689
G1 X104.339 Y67.626 E.09069
G1 X103.803 Y67.626 E.01689
G1 X106.374 Y70.197 E.11457
G1 X106.374 Y70.733 E.01689
G1 X103.267 Y67.626 E.13846
G1 X102.731 Y67.626 E.01689
G1 X106.374 Y71.269 E.16235
G1 X106.374 Y71.805 E.01689
G1 X102.195 Y67.626 E.18623
G1 X101.659 Y67.626 E.01689
G1 X106.374 Y72.341 E.21012
G1 X106.374 Y72.877 E.01689
G1 X101.123 Y67.626 E.23401
G1 X100.587 Y67.626 E.01689
G1 X106.374 Y73.413 E.25789
G1 X106.374 Y73.949 E.01689
G1 X100.051 Y67.626 E.28178
G1 X99.515 Y67.626 E.01689
G1 X106.374 Y74.485 E.30567
G1 X106.374 Y75.021 E.01689
G1 X98.979 Y67.626 E.32955
G1 X98.443 Y67.626 E.01689
G1 X106.374 Y75.557 E.35344
G1 X106.374 Y76.093 E.01689
G1 X97.907 Y67.626 E.37733
G1 X97.371 Y67.626 E.01689
G1 X106.374 Y76.629 E.40121
G1 X106.374 Y77.164 E.01686
G1 X96.836 Y67.626 E.42505
G1 X96.3 Y67.626 E.01689
G1 X106.374 Y77.7 E.44894
G1 X106.374 Y78.236 E.01689
G1 X95.764 Y67.626 E.47283
G1 X95.228 Y67.626 E.01689
G1 X106.374 Y78.772 E.49671
G1 X106.374 Y79.308 E.01689
G1 X94.692 Y67.626 E.5206
G1 X94.156 Y67.626 E.01689
G1 X106.374 Y79.844 E.54449
G1 X106.374 Y80.38 E.01689
M73 P4 R21
G1 X93.62 Y67.626 E.56837
G1 X93.084 Y67.626 E.01689
G1 X106.374 Y80.916 E.59226
G1 X106.374 Y81.452 E.01689
G1 X92.548 Y67.626 E.61614
G1 X92.012 Y67.626 E.01689
G1 X106.374 Y81.988 E.64003
G1 X106.374 Y82.524 E.01689
G1 X91.476 Y67.626 E.66392
G1 X90.94 Y67.626 E.01689
M73 P4 R20
G1 X106.374 Y83.06 E.6878
G1 X106.374 Y83.596 E.01689
G1 X90.404 Y67.626 E.71169
G1 X89.868 Y67.626 E.01689
G1 X106.374 Y84.132 E.73558
G1 X106.374 Y84.668 E.01689
G1 X89.332 Y67.626 E.75946
G1 X88.796 Y67.626 E.01689
G1 X106.374 Y85.204 E.78335
G1 X106.374 Y85.74 E.01689
G1 X88.26 Y67.626 E.80724
G1 X87.724 Y67.626 E.01689
M73 P5 R20
G1 X106.374 Y86.276 E.83112
G1 X106.374 Y86.812 E.01689
G1 X87.188 Y67.626 E.85501
G1 X86.653 Y67.626 E.01686
G1 X106.374 Y87.347 E.87885
G1 X106.374 Y87.883 E.01689
G1 X86.117 Y67.626 E.90274
G1 X85.581 Y67.626 E.01689
G1 X106.374 Y88.419 E.92662
G1 X106.374 Y88.955 E.01689
G1 X85.045 Y67.626 E.95051
G1 X84.509 Y67.626 E.01689
G1 X106.374 Y89.491 E.9744
G1 X106.374 Y90.027 E.01689
G1 X83.973 Y67.626 E.99828
G1 X83.437 Y67.626 E.01689
G1 X106.374 Y90.563 E1.02217
G1 X106.374 Y91.099 E.01689
M73 P6 R20
G1 X82.901 Y67.626 E1.04606
G1 X82.365 Y67.626 E.01689
G1 X106.374 Y91.635 E1.06994
G1 X106.374 Y92.171 E.01689
G1 X81.829 Y67.626 E1.09383
G1 X81.293 Y67.626 E.01689
G1 X106.374 Y92.707 E1.11771
G1 X106.374 Y93.243 E.01689
G1 X80.757 Y67.626 E1.1416
G1 X80.221 Y67.626 E.01689
G1 X106.374 Y93.779 E1.16549
G1 X106.374 Y94.315 E.01689
G1 X79.685 Y67.626 E1.18937
G1 X79.149 Y67.626 E.01689
M73 P7 R20
G1 X106.374 Y94.851 E1.21326
G1 X106.374 Y95.387 E.01689
G1 X78.613 Y67.626 E1.23715
G1 X78.077 Y67.626 E.01689
G1 X106.374 Y95.923 E1.26103
G1 X106.374 Y96.459 E.01689
G1 X77.541 Y67.626 E1.28492
G1 X77.005 Y67.626 E.01689
G1 X106.374 Y96.995 E1.30881
G1 X106.374 Y97.53 E.01686
G1 X76.47 Y67.626 E1.33265
G1 X75.934 Y67.626 E.01689
G1 X106.374 Y98.066 E1.35653
G1 X106.374 Y98.602 E.01689
M73 P8 R20
G1 X75.398 Y67.626 E1.38042
G1 X74.862 Y67.626 E.01689
G1 X106.374 Y99.138 E1.40431
G1 X106.374 Y99.674 E.01689
G1 X74.326 Y67.626 E1.42819
G1 X73.79 Y67.626 E.01689
G1 X106.374 Y100.21 E1.45208
G1 X106.374 Y100.746 E.01689
G1 X73.626 Y67.999 E1.45937
G1 X73.626 Y68.535 E.01689
M73 P8 R19
G1 X106.374 Y101.282 E1.45937
M73 P9 R19
G1 X106.374 Y101.818 E.01689
G1 X73.626 Y69.071 E1.45937
G1 X73.626 Y69.607 E.01689
G1 X106.374 Y102.354 E1.45937
G1 X106.374 Y102.89 E.01689
G1 X73.626 Y70.143 E1.45937
G1 X73.626 Y70.679 E.01689
G1 X106.374 Y103.426 E1.45937
G1 X106.374 Y103.962 E.01689
G1 X73.626 Y71.215 E1.45937
G1 X73.626 Y71.751 E.01689
M73 P10 R19
G1 X106.374 Y104.498 E1.45937
G1 X106.374 Y105.034 E.01689
G1 X73.626 Y72.287 E1.45937
G1 X73.626 Y72.823 E.01689
G1 X106.374 Y105.57 E1.45937
G1 X106.374 Y106.106 E.01689
G1 X73.626 Y73.359 E1.45937
G1 X73.626 Y73.894 E.01686
G1 X106.374 Y106.642 E1.45939
G1 X106.374 Y107.178 E.01689
G1 X73.626 Y74.43 E1.45939
G1 X73.626 Y74.966 E.01689
M73 P11 R19
G1 X106.374 Y107.713 E1.45937
G1 X106.374 Y108.249 E.01689
G1 X73.626 Y75.502 E1.45937
G1 X73.626 Y76.038 E.01689
G1 X106.374 Y108.785 E1.45937
G1 X106.374 Y109.321 E.01689
G1 X73.626 Y76.574 E1.45937
G1 X73.626 Y77.11 E.01689
G1 X106.374 Y109.857 E1.45937
G1 X106.374 Y110.393 E.01689
M73 P12 R19
G1 X73.626 Y77.646 E1.45937
G1 X73.626 Y78.182 E.01689
G1 X106.374 Y110.929 E1.45937
G1 X106.374 Y111.465 E.01689
G1 X73.626 Y78.718 E1.45937
G1 X73.626 Y79.254 E.01689
G1 X106.374 Y112.001 E1.45937
G1 X106.374 Y112.374 E.01175
G1 X106.21 Y112.374 E.00517
G1 X73.626 Y79.79 E1.45208
G1 X73.626 Y80.326 E.01689
G1 X105.674 Y112.374 E1.42819
G1 X105.138 Y112.374 E.01689
M73 P13 R19
G1 X73.626 Y80.862 E1.40431
G1 X73.626 Y81.398 E.01689
G1 X104.602 Y112.374 E1.38042
G1 X104.066 Y112.374 E.01689
G1 X73.626 Y81.934 E1.35653
G1 X73.626 Y82.47 E.01689
M73 P13 R18
G1 X103.53 Y112.374 E1.33265
G1 X102.994 Y112.374 E.01689
G1 X73.626 Y83.006 E1.30876
G1 X73.626 Y83.542 E.01689
G1 X102.458 Y112.374 E1.28488
G1 X101.923 Y112.374 E.01686
M73 P14 R18
G1 X73.626 Y84.077 E1.26103
G1 X73.626 Y84.613 E.01689
G1 X101.387 Y112.374 E1.23715
G1 X100.851 Y112.374 E.01689
G1 X73.626 Y85.149 E1.21326
G1 X73.626 Y85.685 E.01689
G1 X100.315 Y112.374 E1.18937
G1 X99.779 Y112.374 E.01689
G1 X73.626 Y86.221 E1.16549
G1 X73.626 Y86.757 E.01689
G1 X99.243 Y112.374 E1.1416
G1 X98.707 Y112.374 E.01689
G1 X73.626 Y87.293 E1.11771
G1 X73.626 Y87.829 E.01689
M73 P15 R18
G1 X98.171 Y112.374 E1.09383
G1 X97.635 Y112.374 E.01689
G1 X73.626 Y88.365 E1.06994
G1 X73.626 Y88.901 E.01689
G1 X97.099 Y112.374 E1.04606
G1 X96.563 Y112.374 E.01689
G1 X73.626 Y89.437 E1.02217
G1 X73.626 Y89.973 E.01689
G1 X96.027 Y112.374 E.99828
G1 X95.491 Y112.374 E.01689
G1 X73.626 Y90.509 E.9744
G1 X73.626 Y91.045 E.01689
G1 X94.955 Y112.374 E.95051
G1 X94.419 Y112.374 E.01689
M73 P16 R18
G1 X73.626 Y91.581 E.92662
G1 X73.626 Y92.117 E.01689
G1 X93.883 Y112.374 E.90274
G1 X93.347 Y112.374 E.01689
G1 X73.626 Y92.653 E.87885
G1 X73.626 Y93.189 E.01689
G1 X92.811 Y112.374 E.85496
G1 X92.275 Y112.374 E.01689
G1 X73.626 Y93.725 E.83108
G1 X73.626 Y94.26 E.01686
G1 X91.74 Y112.374 E.80724
G1 X91.204 Y112.374 E.01689
G1 X73.626 Y94.796 E.78335
G1 X73.626 Y95.332 E.01689
G1 X90.668 Y112.374 E.75946
G1 X90.132 Y112.374 E.01689
G1 X73.626 Y95.868 E.73558
G1 X73.626 Y96.404 E.01689
G1 X89.596 Y112.374 E.71169
G1 X89.06 Y112.374 E.01689
M73 P17 R18
G1 X73.626 Y96.94 E.6878
G1 X73.626 Y97.476 E.01689
G1 X88.524 Y112.374 E.66392
G1 X87.988 Y112.374 E.01689
G1 X73.626 Y98.012 E.64003
G1 X73.626 Y98.548 E.01689
G1 X87.452 Y112.374 E.61614
G1 X86.916 Y112.374 E.01689
G1 X73.626 Y99.084 E.59226
G1 X73.626 Y99.62 E.01689
G1 X86.38 Y112.374 E.56837
G1 X85.844 Y112.374 E.01689
G1 X73.626 Y100.156 E.54449
G1 X73.626 Y100.692 E.01689
G1 X85.308 Y112.374 E.5206
G1 X84.772 Y112.374 E.01689
G1 X73.626 Y101.228 E.49671
G1 X73.626 Y101.764 E.01689
G1 X84.236 Y112.374 E.47283
G1 X83.7 Y112.374 E.01689
G1 X73.626 Y102.3 E.44894
G1 X73.626 Y102.836 E.01689
G1 X83.164 Y112.374 E.42505
G1 X82.628 Y112.374 E.01689
G1 X73.626 Y103.372 E.40117
G1 X73.626 Y103.908 E.01689
G1 X82.092 Y112.374 E.37728
G1 X81.557 Y112.374 E.01686
G1 X73.626 Y104.443 E.35344
G1 X73.626 Y104.979 E.01689
M73 P18 R18
G1 X81.021 Y112.374 E.32955
G1 X80.485 Y112.374 E.01689
M73 P18 R17
G1 X73.626 Y105.515 E.30567
G1 X73.626 Y106.051 E.01689
G1 X79.949 Y112.374 E.28178
G1 X79.413 Y112.374 E.01689
G1 X73.626 Y106.587 E.25789
G1 X73.626 Y107.123 E.01689
G1 X78.877 Y112.374 E.23401
G1 X78.341 Y112.374 E.01689
G1 X73.626 Y107.659 E.21012
G1 X73.626 Y108.195 E.01689
G1 X77.805 Y112.374 E.18623
G1 X77.269 Y112.374 E.01689
G1 X73.626 Y108.731 E.16235
G1 X73.626 Y109.267 E.01689
G1 X76.733 Y112.374 E.13846
G1 X76.197 Y112.374 E.01689
G1 X73.626 Y109.803 E.11457
G1 X73.626 Y110.339 E.01689
G1 X75.661 Y112.374 E.09069
G1 X75.125 Y112.374 E.01689
G1 X73.626 Y110.875 E.0668
G1 X73.626 Y111.411 E.01689
G1 X74.589 Y112.374 E.04292
G1 X74.053 Y112.374 E.01689
G1 X73.457 Y111.777 E.02658
M204 P1000
M106 S84.15
;LAYER_CHANGE
;Z:0.4
;HEIGHT:0.2
;BEFORE_LAYER_CHANGE
G92 E0.0
;0.4


G1 E-2.24 F4200
;WIPE_START
G1 F7200
G1 X74.053 Y112.374 E-.46748
G1 X74.589 Y112.374 E-.29703
G1 X74.34 Y112.125 E-.19549
;WIPE_END
G1 Z.4 F720
;AFTER_LAYER_CHANGE
;0.4
M486 S-1
G1 Z.6
G1 X74.34 Y115.877 F9000
G1 Z.4 F720
G1 E3.2 F2400
;TYPE:Skirt/Brim
;WIDTH:0.42
G1 X72.5 Y115.877 E.05769
G1 X71.193 Y115.485 E.04278
G1 X70.317 Y114.44 E.04275
G1 X70.123 Y113.5 E.03009
G1 X70.123 Y66.5 E1.47365
G1 X70.515 Y65.193 E.04278
G1 X71.56 Y64.317 E.04275
G1 X72.5 Y64.123 E.03009
G1 X107.5 Y64.123 E1.0974
G1 X108.807 Y64.515 E.04278
G1 X109.683 Y65.56 E.04275
G1 X109.877 Y66.5 E.03009
G1 X109.877 Y113.5 E1.47365
G1 X109.485 Y114.807 E.04278
G1 X108.44 Y115.683 E.04275
G1 X107.5 Y115.877 E.03009
G1 X74.4 Y115.877 E1.03783
G1 E-2.24 F4200
;WIPE_START
G1 F7200
G1 X74.34 Y115.877 E-.03325
G1 X72.668 Y115.877 E-.92675
;WIPE_END
G1 Z.6 F720
M486 S0
G1 X73.132 Y67.132 F9000
G1 Z.4 F720
G1 E3.2 F2400
;TYPE:Perimeter
;WIDTH:0.449999
G1 F2758.983
G1 X106.868 Y67.132 E1.14192
G1 F2593.855
G1 X106.868 Y84 E.57096
G1 F2799.738
G1 X106.868 Y112.868 E.97715
G1 F2758.984
G1 X73.132 Y112.868 E1.14192
G1 F3000
M73 P19 R17
G1 X73.132 Y67.192 E1.54608
G1 X72.725 Y66.725 F9000
M204 P800
;TYPE:External perimeter
G1 F2107.037
G1 X73.4 Y66.725 E.02285
G1 F2249.531
G1 X106.6 Y66.725 E1.12378
G1 F2107.037
G1 X107.275 Y66.725 E.02285
G1 X107.275 Y83.325 E.56189
G1 F2215.382
G1 X107.275 Y84 E.02285
G1 F2278.715
G1 X107.275 Y84.675 E.02285
G1 F2257.585
G1 X107.275 Y112.6 E.94523
G1 F2107.037
G1 X107.275 Y113.275 E.02285
G1 X106.6 Y113.275 E.02285
G1 F2249.531
G1 X73.4 Y113.275 E1.12378
G1 F2107.037
G1 X72.725 Y113.275 E.02285
G1 X72.725 Y112.6 E.02285
G1 F2399.995
G1 X72.725 Y67.4 E1.52996
G1 X72.725 Y66.785 E.02082
M204 P1000
G1 X73.609 Y67.531 F9000
M204 P1500
;TYPE:Solid infill
;WIDTH:0.548766
G1 F8400
G2 X73.593 Y67.593 I-.058 J.018 E.01318
;WIDTH:0.449999
G1 X74.243 Y67.498 E.02224
G1 X73.498 Y68.243 E.03566
G1 X73.498 Y68.818 E.01946
G1 X74.818 Y67.498 E.06319
G1 X75.394 Y67.498 E.0195
G1 X73.498 Y69.394 E.09076
G1 X73.498 Y69.97 E.0195
G1 X75.97 Y67.498 E.11833
G1 X76.546 Y67.498 E.0195
G1 X73.498 Y70.546 E.14591
G1 X73.498 Y71.121 E.01946
G1 X77.121 Y67.498 E.17343
G1 X77.697 Y67.498 E.0195
G1 X73.498 Y71.697 E.201
G1 X73.498 Y72.273 E.0195
G1 X78.273 Y67.498 E.22858
G1 X78.848 Y67.498 E.01946
G1 X73.498 Y72.848 E.2561
G1 X73.498 Y73.424 E.0195
G1 X79.424 Y67.498 E.28367
G1 X80 Y67.498 E.0195
G1 X73.498 Y74 E.31125
G1 X73.498 Y74.575 E.01946
G1 X80.575 Y67.498 E.33877
G1 X81.151 Y67.498 E.0195
G1 X73.498 Y75.151 E.36634
G1 X73.498 Y75.727 E.0195
G1 X81.727 Y67.498 E.39392
G1 X82.303 Y67.498 E.0195
G1 X73.498 Y76.303 E.42149
G1 X73.498 Y76.878 E.01946
G1 X82.878 Y67.498 E.44901
G1 X83.454 Y67.498 E.0195
G1 X73.498 Y77.454 E.47659
G1 X73.498 Y78.03 E.0195
G1 X84.03 Y67.498 E.50416
G1 X84.605 Y67.498 E.01946
G1 X73.498 Y78.605 E.53169
G1 X73.498 Y79.181 E.0195
G1 X85.181 Y67.498 E.55926
G1 X85.757 Y67.498 E.0195
G1 X73.498 Y79.757 E.58683
G1 X73.498 Y80.332 E.01946
G1 X86.332 Y67.498 E.61436
G1 X86.908 Y67.498 E.0195
G1 X73.498 Y80.908 E.64193
G1 X73.498 Y81.484 E.0195
G1 X87.484 Y67.498 E.6695
G1 X88.059 Y67.498 E.01946
G1 X73.498 Y82.059 E.69703
G1 X73.498 Y82.635 E.0195
G1 X88.635 Y67.498 E.7246
G1 X89.211 Y67.498 E.0195
G1 X73.498 Y83.211 E.75217
G1 X73.498 Y83.787 E.0195
G1 X89.787 Y67.498 E.77974
G1 X90.362 Y67.498 E.01946
G1 X73.498 Y84.362 E.80727
G1 X73.498 Y84.938 E.0195
G1 X90.938 Y67.498 E.83484
G1 X91.514 Y67.498 E.0195
G1 X73.498 Y85.514 E.86241
G1 X73.498 Y86.089 E.01946
G1 X92.089 Y67.498 E.88994
G1 X92.665 Y67.498 E.0195
G1 X73.498 Y86.665 E.91751
G1 X73.498 Y87.241 E.0195
G1 X93.241 Y67.498 E.94509
G1 X93.816 Y67.498 E.01946
G1 X73.498 Y87.816 E.97261
G1 X73.498 Y88.392 E.0195
G1 X94.392 Y67.498 E1.00018
G1 X94.968 Y67.498 E.0195
G1 X73.498 Y88.968 E1.02776
G1 X73.498 Y89.544 E.0195
M73 P20 R17
G1 X95.544 Y67.498 E1.05533
G1 X96.119 Y67.498 E.01946
G1 X73.498 Y90.119 E1.08285
G1 X73.498 Y90.695 E.0195
G1 X96.695 Y67.498 E1.11043
G1 X97.271 Y67.498 E.0195
G1 X73.498 Y91.271 E1.138
G1 X73.498 Y91.846 E.01946
G1 X97.846 Y67.498 E1.16552
G1 X98.422 Y67.498 E.0195
G1 X73.498 Y92.422 E1.1931
G1 X73.498 Y92.998 E.0195
G1 X98.998 Y67.498 E1.22067
G1 X99.573 Y67.498 E.01946
G1 X73.498 Y93.573 E1.24819
G1 X73.498 Y94.149 E.0195
G1 X100.149 Y67.498 E1.27577
G1 X100.725 Y67.498 E.0195
G1 X73.498 Y94.725 E1.30334
G1 X73.498 Y95.301 E.0195
G1 X101.301 Y67.498 E1.33091
G1 X101.876 Y67.498 E.01946
G1 X73.498 Y95.876 E1.35844
G1 X73.498 Y96.452 E.0195
G1 X102.452 Y67.498 E1.38601
G1 X103.028 Y67.498 E.0195
G1 X73.498 Y97.028 E1.41358
G1 X73.498 Y97.603 E.01946
G1 X103.603 Y67.498 E1.44111
G1 X104.179 Y67.498 E.0195
G1 X73.498 Y98.179 E1.46868
