; generated by PrusaSlicer 2.7.4+MacOS-arm64 on 2024-06-13 at 07:11:28 UTC


;
;

;
;

;
;

;
;
; 

; external perimeters extrusion width = 0.45mm
; perimeters extrusion width = 0.45mm
; infill extrusion width = 0.45mm
; solid infill extrusion width = 0.45mm
; top infill extrusion width = 0.40mm
; first layer extrusion width = 0.42mm

M73 P0 R18
M201 X2500 Y2500 Z400 E5000 ; sets maximum accelerations, mm/sec^2
M203 X180 Y180 Z12 E80 ; sets maximum feedrates, mm / sec
M204 P2000 R1250 T2500 ; sets acceleration (P, T) and retract acceleration (R), mm/sec^2
M205 X8.00 Y8.00 Z2.00 E10.00 ; sets the jerk limits, mm/sec
M205 S0 T0 ; sets the minimum extruding and travel feed rate, mm/sec

M486 S0
M486 AAdapter_v2.stl
M486 S-1

;TYPE:Custom
M862.3 P "MINI" ; printer model check
G90 ; use absolute coordinates
M83 ; extruder relative mode
M104 S170 ; set extruder temp for bed leveling
M140 S60 ; set bed temp
M109 R170 ; wait for bed leveling temp
M190 S60 ; wait for bed temp
M204 T1250 ; set travel acceleration
G28 ; home all without mesh bed level
G29 ; mesh bed leveling 
M204 T2500 ; restore travel acceleration
M104 S215 ; set extruder temp
G92 E0
G1 Y-2 X179 F2400
G1 Z3 F720
M109 S215 ; wait for extruder temp

; intro line
G1 X170 F1000
G1 Z0.2 F720
G1 X110 E8 F900
G1 X40 E10 F700
G92 E0

M221 S95 ; set flow
G21 ; set units to millimeters
G90 ; use absolute coordinates
M83 ; use relative distances for extrusion

M900 K0.2 ; Filament gcode LA 1.5
; ; Filament gcode LA 1.0




M107
;LAYER_CHANGE
;Z:0.2
;HEIGHT:0.2
G1 E-3.2 F4200
M73 P1 R18
G1 Z.4 F720
G1 X75.705 Y82.069 F9000
G1 Z.2 F720
G1 E3.2 F2400
M204 P600
;TYPE:Skirt/Brim
;WIDTH:0.42
G1 F1200
G1 X77 Y81.746 E.04185
G1 X103 Y81.746 E.81521
G1 X104.417 Y82.139 E.04611
G1 X105.431 Y83.205 E.04613
G1 X105.754 Y84.5 E.04185
G1 X105.754 Y95.5 E.3449
G1 X105.361 Y96.917 E.04611
G1 X104.295 Y97.931 E.04613
G1 X103 Y98.254 E.04185
G1 X77 Y98.254 E.81521
G1 X75.583 Y97.861 E.04611
G1 X74.569 Y96.795 E.04613
G1 X74.246 Y95.5 E.04185
G1 X74.246 Y84.5 E.3449
G1 X74.639 Y83.083 E.04611
G1 X75.661 Y82.111 E.04422
M204 P1000
G1 X75.661 Y82.111 F9000
G1 X75.927 Y82.428
M204 P600
G1 F1200
G1 X76.06 Y82.317 E.00543
G1 X77 Y82.123 E.03009
G1 X103 Y82.123 E.81521
G1 X104.307 Y82.515 E.04278
G1 X105.183 Y83.56 E.04275
G1 X105.377 Y84.5 E.03009
G1 X105.377 Y95.5 E.3449
G1 X104.985 Y96.807 E.04278
M73 P2 R18
G1 X103.94 Y97.683 E.04275
G1 X103 Y97.877 E.03009
G1 X77 Y97.877 E.81521
G1 X75.693 Y97.485 E.04278
G1 X74.817 Y96.44 E.04275
G1 X74.623 Y95.5 E.03009
G1 X74.623 Y84.5 E.3449
G1 X75.015 Y83.193 E.04278
G1 X75.881 Y82.467 E.03543
M204 P1000
G1 E-2.24 F4200
;WIPE_START
G1 F7200
G1 X75.927 Y82.428 E-.03342
G1 X76.06 Y82.317 E-.096
G1 X77 Y82.123 E-.53189
G1 X77.539 Y82.123 E-.29869
;WIPE_END
G1 Z.4 F720
M486 S0
G1 X85.718 Y90.765 F9000
G1 Z.2 F720
G1 E3.2 F2400
M204 P600
;TYPE:Perimeter
;WIDTH:0.419999
G1 F1200
G2 X85.828 Y91.063 I.776 J-.116 E.01003
G1 X86.096 Y91.257 E.01037
G1 X86.279 Y91.287 E.00581
G1 X96.721 Y91.287 E.3274
G2 X97.287 Y90.721 I-.025 J-.591 E.02756
G1 X97.287 Y85.287 E.17038
G1 X102.213 Y85.287 E.15445
G1 X102.213 Y87.75 E.07723
G1 X102.213 Y94.713 E.21832
G1 X77.787 Y94.713 E.76586
G1 X77.787 Y85.287 E.29555
G1 X85.713 Y85.287 E.24851
G1 X85.713 Y90.705 E.16988
M204 P1000
G1 X86.09 Y90.721 F9000
M204 P600
;TYPE:External perimeter
G1 F1200
G2 X86.279 Y90.91 I.221 J-.032 E.00898
G1 X96.721 Y90.91 E.3274
G2 X96.91 Y90.721 I-.031 J-.22 E.009
G1 X96.91 Y84.91 E.1822
G1 X102.59 Y84.91 E.17809
G1 X102.59 Y87.75 E.08905
G1 X102.59 Y95.09 E.23014
G1 X77.41 Y95.09 E.7895
G1 X77.41 Y84.91 E.31919
G1 X86.09 Y84.91 E.27215
G1 X86.09 Y90.661 E.18032
M204 P1000
G1 E-2.24 F4200
M73 P3 R18
;WIPE_START
G1 F7200
G1 X86.09 Y90.721 E-.03325
G2 X86.279 Y90.91 I.221 J-.032 E-.15876
G1 X87.665 Y90.91 E-.76799
;WIPE_END
G1 Z.4 F720
G1 X101.276 Y85.457 F9000
G1 Z.2 F720
G1 E3.2 F2400
M204 P600
;TYPE:Solid infill
;WIDTH:0.422115
G1 F1200
G1 X101.874 Y86.054 E.02664
G1 X101.874 Y86.59 E.0169
G1 X100.91 Y85.626 E.04299
G1 X100.374 Y85.626 E.0169
G1 X101.874 Y87.126 E.06689
G1 X101.874 Y87.663 E.01693
G1 X99.837 Y85.626 E.09083
G1 X99.301 Y85.626 E.0169
G1 X101.874 Y88.199 E.11473
G1 X101.874 Y88.735 E.0169
G1 X98.765 Y85.626 E.13863
G1 X98.229 Y85.626 E.0169
G1 X101.874 Y89.271 E.16253
G1 X101.874 Y89.808 E.01693
G1 X97.692 Y85.626 E.18648
G1 X97.626 Y85.626 E.00208
G1 X97.625 Y86.096 E.01482
G1 X101.874 Y90.344 E.18944
G1 X101.874 Y90.88 E.0169
G1 X97.624 Y86.631 E.18949
G1 X97.623 Y87.166 E.01687
G1 X101.874 Y91.416 E.18953
G1 X101.874 Y91.953 E.01693
G1 X97.622 Y87.701 E.1896
G1 X97.621 Y88.236 E.01687
G1 X101.874 Y92.489 E.18964
G1 X101.874 Y93.025 E.0169
G1 X97.619 Y88.771 E.18971
G1 X97.618 Y89.306 E.01687
G1 X101.874 Y93.562 E.18978
G1 X101.874 Y94.098 E.0169
G1 X97.617 Y89.841 E.18982
G1 X97.616 Y90.377 E.0169
G1 X101.613 Y94.374 E.17823
G1 X101.077 Y94.374 E.0169
G1 X97.606 Y90.903 E.15477
G3 X97.438 Y91.271 I-.943 J-.209 E.01285
G1 X100.541 Y94.374 E.13836
G1 X100.004 Y94.374 E.01693
G1 X97.144 Y91.513 E.12755
G3 X96.721 Y91.626 I-.436 J-.779 E.01395
G1 X99.468 Y94.374 E.12251
G1 X98.932 Y94.374 E.0169
G1 X96.185 Y91.626 E.12251
G1 X95.648 Y91.626 E.01693
G1 X98.395 Y94.374 E.12251
G1 X97.859 Y94.374 E.0169
G1 X95.112 Y91.626 E.12251
G1 X94.576 Y91.626 E.0169
G1 X97.323 Y94.374 E.12251
G1 X96.787 Y94.374 E.0169
G1 X94.04 Y91.626 E.12251
G1 X93.503 Y91.626 E.01693
G1 X96.25 Y94.374 E.12251
G1 X95.714 Y94.374 E.0169
G1 X92.967 Y91.626 E.12251
G1 X92.431 Y91.626 E.0169
G1 X95.178 Y94.374 E.12251
G1 X94.642 Y94.374 E.0169
G1 X91.895 Y91.626 E.12251
G1 X91.358 Y91.626 E.01693
G1 X94.105 Y94.374 E.12251
G1 X93.569 Y94.374 E.0169
G1 X90.822 Y91.626 E.12251
G1 X90.286 Y91.626 E.0169
G1 X93.033 Y94.374 E.12251
G1 X92.497 Y94.374 E.0169
G1 X89.749 Y91.626 E.12253
G1 X89.213 Y91.626 E.0169
G1 X91.96 Y94.374 E.12251
G1 X91.424 Y94.374 E.0169
G1 X88.677 Y91.626 E.12251
G1 X88.141 Y91.626 E.0169
G1 X90.888 Y94.374 E.12251
G1 X90.352 Y94.374 E.0169
G1 X87.604 Y91.626 E.12253
G1 X87.068 Y91.626 E.0169
G1 X89.815 Y94.374 E.12251
G1 X89.279 Y94.374 E.0169
G1 X86.362 Y91.457 E.13007
M204 P1000
G1 E-2.24 F4200
;WIPE_START
G1 F7200
G1 X87.587 Y92.682 E-.96
;WIPE_END
G1 Z.4 F720
G1 X85.543 Y85.811 F9000
G1 Z.2 F720
M73 P4 R18
G1 E3.2 F2400
M204 P600
G1 F1200
G1 X85.358 Y85.626 E.00825
G1 X84.822 Y85.626 E.0169
G1 X85.374 Y86.178 E.02461
G1 X85.374 Y86.714 E.0169
G1 X84.286 Y85.626 E.04851
G1 X83.749 Y85.626 E.01693
G1 X85.374 Y87.251 E.07246
G1 X85.374 Y87.787 E.0169
G1 X83.213 Y85.626 E.09636
G1 X82.677 Y85.626 E.0169
G1 X85.374 Y88.323 E.12026
G1 X85.374 Y88.859 E.0169
G1 X82.141 Y85.626 E.14416
G1 X81.604 Y85.626 E.01693
G1 X85.374 Y89.396 E.16811
G1 X85.374 Y89.932 E.0169
G1 X81.068 Y85.626 E.19201
G1 X80.532 Y85.626 E.0169
G1 X85.543 Y90.638 E.22346
M204 P1000
G1 E-2.24 F4200
;WIPE_START
G1 F7200
G1 X84.318 Y89.413 E-.96
;WIPE_END
G1 Z.4 F720
G1 X88.912 Y94.543 F9000
G1 Z.2 F720
G1 E3.2 F2400
M204 P600
G1 F1200
G1 X79.996 Y85.626 E.39759
G1 X79.459 Y85.626 E.01693
G1 X88.206 Y94.374 E.39005
G1 X87.67 Y94.374 E.0169
G1 X78.923 Y85.626 E.39005
G1 X78.387 Y85.626 E.0169
G1 X87.134 Y94.374 E.39005
G1 X86.598 Y94.374 E.0169
M73 P4 R17
G1 X78.126 Y85.902 E.37777
G1 X78.126 Y86.439 E.01693
G1 X86.061 Y94.374 E.35383
G1 X85.525 Y94.374 E.0169
G1 X78.126 Y86.975 E.32992
G1 X78.126 Y87.511 E.0169
G1 X84.989 Y94.374 E.30602
G1 X84.453 Y94.374 E.0169
G1 X78.126 Y88.047 E.28212
G1 X78.126 Y88.584 E.01693
G1 X83.916 Y94.374 E.25818
G1 X83.38 Y94.374 E.0169
G1 X78.126 Y89.12 E.23428
G1 X78.126 Y89.656 E.0169
G1 X82.844 Y94.374 E.21038
G1 X82.308 Y94.374 E.0169
G1 X78.126 Y90.192 E.18648
G1 X78.126 Y90.729 E.01693
G1 X81.771 Y94.374 E.16253
G1 X81.235 Y94.374 E.0169
G1 X78.126 Y91.265 E.13863
G1 X78.126 Y91.801 E.0169
G1 X80.699 Y94.374 E.11473
G1 X80.163 Y94.374 E.0169
G1 X78.126 Y92.337 E.09083
G1 X78.126 Y92.874 E.01693
G1 X79.626 Y94.374 E.06689
G1 X79.09 Y94.374 E.0169
G1 X78.126 Y93.41 E.04299
G1 X78.126 Y93.946 E.0169
G1 X78.723 Y94.543 E.02662
M204 P1000
M106 S84.15
;LAYER_CHANGE
;Z:0.4
;HEIGHT:0.2
;BEFORE_LAYER_CHANGE
G92 E0.0
;0.4


G1 E-2.24 F4200
;WIPE_START
G1 F7200
G1 X78.126 Y93.946 E-.46787
G1 X78.126 Y93.41 E-.29703
G1 X78.375 Y93.659 E-.1951
;WIPE_END
G1 Z.4 F720
M73 P5 R17
;AFTER_LAYER_CHANGE
;0.4
M486 S-1
G1 Z.6
G1 X74.246 Y93.659 F9000
G1 Z.4 F720
G1 E3.2 F2400
;TYPE:Skirt/Brim
;WIDTH:0.42
G1 X74.246 Y84.5 E.28717
G1 X74.639 Y83.083 E.04611
G1 X75.705 Y82.069 E.04613
G1 X77 Y81.746 E.04185
G1 X103 Y81.746 E.81521
G1 X104.417 Y82.139 E.04611
G1 X105.431 Y83.205 E.04613
G1 X105.754 Y84.5 E.04185
G1 X105.754 Y95.5 E.3449
G1 X105.361 Y96.917 E.04611
G1 X104.295 Y97.931 E.04613
G1 X103 Y98.254 E.04185
G1 X77 Y98.254 E.81521
G1 X75.583 Y97.861 E.04611
G1 X74.569 Y96.795 E.04613
G1 X74.246 Y95.5 E.04185
G1 X74.246 Y93.719 E.05584
G1 X74.246 Y93.719 F9000
G1 X74.623 Y93.719
G1 F2400
G1 X74.623 Y84.5 E.28906
G1 X75.015 Y83.193 E.04278
G1 X76.06 Y82.317 E.04275
G1 X77 Y82.123 E.03009
G1 X103 Y82.123 E.81521
G1 X104.307 Y82.515 E.04278
G1 X105.183 Y83.56 E.04275
G1 X105.377 Y84.5 E.03009
G1 X105.377 Y95.5 E.3449
G1 X104.985 Y96.807 E.04278
G1 X103.94 Y97.683 E.04275
G1 X103 Y97.877 E.03009
G1 X77 Y97.877 E.81521
G1 X75.693 Y97.485 E.04278
G1 X74.817 Y96.44 E.04275
G1 X74.623 Y95.5 E.03009
G1 X74.623 Y93.779 E.05396
G1 E-2.24 F4200
;WIPE_START
G1 F7200
G1 X74.623 Y93.719 E-.03325
G1 X74.623 Y92.047 E-.92675
;WIPE_END
G1 Z.6 F720
M486 S0
G1 X86.422 Y91.123 F9000
G1 Z.4 F720
G1 E3.2 F2400
;TYPE:Perimeter
;WIDTH:0.449999
G1 F2649.371
G1 X86.479 Y91.132 E.00195
G1 F2996.903
G1 X96.521 Y91.132 E.33991
G1 F2751.839
G1 X96.627 Y91.123 E.0036
G1 F2742.703
G1 X96.864 Y91.027 E.00866
G1 F2730.146
G1 X97.066 Y90.798 E.01034
G1 F2722.085
G1 X97.132 Y90.521 E.00964
G1 X97.132 Y85.132 E.18241
G1 F2569.206
G1 X102.368 Y85.132 E.17723
G1 F2588.98
G1 X102.368 Y87.75 E.08862
G1 F2589.058
G1 X102.368 Y94.868 E.24094
G1 X77.632 Y94.868 E.83728
G1 F2567.59
G1 X77.632 Y85.132 E.32955
G1 X85.868 Y85.132 E.27878
G1 F2612.742
G1 X85.868 Y90.521 E.18241
G1 X85.884 Y90.66 E.00474
G1 F2615.51
G1 X86.004 Y90.906 E.00926
G1 F2629.994
G1 X86.289 Y91.102 E.01171
G1 X86.362 Y91.114 E.0025
G1 X86.362 Y91.114 F9000
G1 X86.32 Y90.65
M204 P800
;TYPE:External perimeter
G1 F2144.417
G1 X86.479 Y90.725 E.00595
G1 F2186.6
G1 X87.153 Y90.725 E.02281
G1 F2399.995
G1 X95.847 Y90.725 E.29428
G1 F2247.476
G1 X96.521 Y90.725 E.02281
G1 F2217.555
G1 X96.676 Y90.654 E.00577
G1 F2205.493
G1 X96.725 Y90.521 E.0048
G1 F2199.25
G1 X96.725 Y85.4 E.17334
G1 F2132.661
G1 X96.725 Y84.725 E.02285
G1 F2087.551
G1 X102.775 Y84.725 E.20478
G1 F2101.893
G1 X102.775 Y87.75 E.10239
G1 X102.775 Y95.275 E.25471
G1 X77.225 Y95.275 E.86484
G1 F2086.379
G1 X77.225 Y84.725 E.3571
G1 X86.275 Y84.725 E.30633
G1 F2119.127
G1 X86.275 Y90.521 E.19619
G1 F2127.55
G1 X86.3 Y90.593 E.00258
M204 P1000
G1 E-2.24 F4200
;WIPE_START
G1 F7200
G1 X86.32 Y90.65 E-.03348
G1 X86.479 Y90.725 E-.09742
G1 X87.153 Y90.725 E-.37351
G1 X87.975 Y90.725 E-.45559
;WIPE_END
G1 Z.6 F720
G1 X97.635 Y85.552 F9000
G1 Z.4 F720
G1 E3.2 F2400
M204 P1500
;TYPE:Solid infill
;WIDTH:0.592246
G1 F8191.857
G2 X97.618 Y85.618 I-.063 J.018 E.01562
M204 P1000
G1 X97.618 Y85.618 F9000
G1 X97.352 Y86.505
M204 P1500
;WIDTH:0.38292
G1 F8400
G3 X97.292 Y86.445 I-.02 J-.04 E.00315
G1 X97.363 Y86.464 E.00208
;WIDTH:0.41646
G1 X97.43 Y86.391 E.00308
;WIDTH:0.449999
G1 X98.316 Y85.498 E.04258
G1 X98.41 Y85.427 E.00399
;WIDTH:0.41646
G1 X98.503 Y85.355 E.00365
;WIDTH:0.38292
G3 X98.443 Y85.295 I-.02 J-.04 E.00315
G1 X98.514 Y85.314 E.00208
;WIDTH:0.449999
G1 X98.892 Y85.498 E.01423
G1 X97.495 Y86.896 E.0669
G1 X97.494 Y87.473 E.01953
G1 X99.468 Y85.498 E.09452
G1 X100.044 Y85.498 E.0195
G1 X97.492 Y88.05 E.12216
G1 X97.491 Y88.627 E.01953
G1 X100.619 Y85.498 E.14976
G1 X101.195 Y85.498 E.0195
G1 X97.49 Y89.204 E.17738
G1 X97.488 Y89.781 E.01953
G1 X101.771 Y85.498 E.20502
G1 X101.945 Y85.469 E.00597
M73 P6 R17
;WIDTH:0.41646
G1 X102.12 Y85.44 E.00551
;WIDTH:0.38292
G3 X102.06 Y85.38 I-.02 J-.04 E.00315
G1 X102.131 Y85.399 E.00208
;WIDTH:0.449999
G1 X102.002 Y85.843 E.01565
G1 X97.487 Y90.358 E.21613
G1 X97.447 Y90.495 E.00483
;WIDTH:0.41646
G1 X97.407 Y90.631 E.0044
;WIDTH:0.38292
G1 X97.336 Y90.612 E.00208
G2 X97.396 Y90.673 I.04 J.02 E.00321
;WIDTH:0.449999
G1 X97.268 Y91.153 E.01682
G1 X102.002 Y86.419 E.22661
G1 X102.103 Y86.356 E.00403
;WIDTH:0.41646
G1 X102.205 Y86.293 E.00372
;WIDTH:0.38292
G3 X102.145 Y86.233 I-.02 J-.04 E.00315
G1 X102.216 Y86.252 E.00208
M204 P1000
G1 E-2.24 F4200
;WIPE_START
G1 F7200
G1 X102.145 Y86.233 E-.04073
G2 X102.205 Y86.293 I.04 J.02 E-.06173
G1 X102.103 Y86.356 E-.06644
G1 X102.002 Y86.419 E-.06597
G1 X101.077 Y87.344 E-.72513
;WIPE_END
G1 Z.6 F720
G1 X78.109 Y85.531 F9000
G1 Z.4 F720
G1 E3.2 F2400
M204 P1500
;WIDTH:0.548766
G1 F8400
G2 X78.093 Y85.593 I-.058 J.018 E.01318
;WIDTH:0.449999
G1 X78.743 Y85.498 E.02224
G1 X77.932 Y86.315 E.03897
;WIDTH:0.41646
G1 X77.866 Y86.388 E.00306
;WIDTH:0.38292
G1 X77.795 Y86.369 E.00208
G2 X77.855 Y86.429 I.04 J.02 E.00315
;WIDTH:0.449999
G1 X77.998 Y86.818 E.01403
G1 X79.318 Y85.498 E.06319
G1 X79.894 Y85.498 E.0195
G1 X77.998 Y87.394 E.09076
G1 X77.998 Y87.97 E.0195
G1 X80.47 Y85.498 E.11833
G1 X81.046 Y85.498 E.0195
G1 X77.998 Y88.546 E.14591
G1 X77.998 Y89.121 E.01946
G1 X81.621 Y85.498 E.17343
G1 X82.197 Y85.498 E.0195
G1 X77.998 Y89.697 E.201
G1 X77.998 Y90.273 E.0195
G1 X82.773 Y85.498 E.22858
G1 X83.348 Y85.498 E.01946
G1 X77.998 Y90.848 E.2561
G1 X77.998 Y91.424 E.0195
G1 X83.924 Y85.498 E.28367
G1 X84.5 Y85.498 E.0195
G1 X77.998 Y92 E.31125
G1 X77.998 Y92.575 E.01946
G1 X85.075 Y85.498 E.33877
G1 X85.651 Y85.379 E.01991
;WIDTH:0.38292
G1 X85.58 Y85.36 E.00208
G2 X85.64 Y85.42 I.04 J.02 E.00315
;WIDTH:0.41646
G1 X85.571 Y85.534 E.00414
;WIDTH:0.449999
G1 X85.502 Y85.648 E.00451
G1 X77.998 Y93.151 E.35919
G1 X77.998 Y93.727 E.0195
G1 X85.502 Y86.224 E.35919
G1 X85.502 Y86.799 E.01946
G1 X77.998 Y94.303 E.35921
G1 X77.972 Y94.444 E.00485
;WIDTH:0.41646
G1 X77.945 Y94.585 E.00446
;WIDTH:0.38292
G1 X77.874 Y94.566 E.00208
G2 X77.934 Y94.626 I.04 J.02 E.00315
;WIDTH:0.449999
G1 X78.375 Y94.502 E.01551
G1 X85.502 Y87.375 E.34117
G1 X85.502 Y87.951 E.0195
G1 X78.951 Y94.502 E.31359
G1 X79.527 Y94.502 E.0195
G1 X85.502 Y88.527 E.28602
G1 X85.502 Y89.102 E.01946
G1 X80.102 Y94.502 E.25849
G1 X80.678 Y94.502 E.0195
G1 X85.502 Y89.678 E.23092
G1 X85.502 Y90.254 E.0195
G1 X81.254 Y94.502 E.20335
G1 X81.829 Y94.502 E.01946
G1 X85.542 Y90.789 E.17774
G1 X85.744 Y91.162 E.01436
G1 X82.405 Y94.502 E.15986
G1 X82.981 Y94.502 E.0195
G1 X86.079 Y91.404 E.1483
G1 X86.559 Y91.498 E.01656
G1 X83.556 Y94.502 E.14378
G1 X84.132 Y94.502 E.0195
G1 X87.135 Y91.498 E.14378
G1 X87.711 Y91.498 E.0195
G1 X84.708 Y94.502 E.14378
G1 X85.283 Y94.502 E.01946
G1 X88.287 Y91.498 E.1438
G1 X88.862 Y91.498 E.01946
G1 X85.859 Y94.502 E.14378
G1 X86.435 Y94.502 E.0195
G1 X89.438 Y91.498 E.14378
G1 X90.014 Y91.498 E.0195
G1 X87.011 Y94.502 E.14378
G1 X87.586 Y94.502 E.01946
G1 X90.589 Y91.498 E.14378
G1 X91.165 Y91.498 E.0195
G1 X88.162 Y94.502 E.14378
G1 X88.738 Y94.502 E.0195
G1 X91.741 Y91.498 E.14378
G1 X92.316 Y91.498 E.01946
G1 X89.313 Y94.502 E.14378
G1 X89.889 Y94.502 E.0195
G1 X92.892 Y91.498 E.14378
G1 X93.468 Y91.498 E.0195
G1 X90.465 Y94.502 E.14378
G1 X91.04 Y94.502 E.01946
G1 X94.044 Y91.498 E.1438
G1 X94.619 Y91.498 E.01946
G1 X91.616 Y94.502 E.14378
G1 X92.192 Y94.502 E.0195
G1 X95.195 Y91.498 E.14378
G1 X95.771 Y91.498 E.0195
G1 X92.768 Y94.502 E.14378
G1 X93.343 Y94.502 E.01946
G1 X96.346 Y91.498 E.14378
G1 X96.504 Y91.448 E.00561
;WIDTH:0.41646
G1 X96.661 Y91.398 E.00512
;WIDTH:0.38292
G3 X96.601 Y91.338 I-.02 J-.04 E.00315
G1 X96.672 Y91.357 E.00208
;WIDTH:0.449999
G1 X97.246 Y91.174 E.02039
G1 X93.919 Y94.502 E.15929
G1 X94.495 Y94.502 E.0195
G1 X102.002 Y86.995 E.35936
G1 X102.076 Y86.866 E.00503
;WIDTH:0.41646
G1 X102.151 Y86.737 E.00463
;WIDTH:0.38292
G3 X102.091 Y86.677 I-.02 J-.04 E.00315
G1 X102.162 Y86.696 E.00208
M204 P1000
