; generated by PrusaSlicer 2.7.4+MacOS-arm64 on 2024-05-06 at 19:47:19 UTC


;
;

;
;

;
;

;
;
; 

; external perimeters extrusion width = 0.45mm
; perimeters extrusion width = 0.45mm
; infill extrusion width = 0.45mm
; solid infill extrusion width = 0.45mm
; top infill extrusion width = 0.40mm
; first layer extrusion width = 0.42mm

M73 P0 R98
M201 X2500 Y2500 Z400 E5000 ; sets maximum accelerations, mm/sec^2
M203 X180 Y180 Z12 E80 ; sets maximum feedrates, mm / sec
M204 P2000 R1250 T2500 ; sets acceleration (P, T) and retract acceleration (R), mm/sec^2
M205 X8.00 Y8.00 Z2.00 E10.00 ; sets the jerk limits, mm/sec
M205 S0 T0 ; sets the minimum extruding and travel feed rate, mm/sec

M486 S0
M486 ACaneAdapter_v2.2.stl
M486 S-1

;TYPE:Custom
M862.3 P "MINI" ; printer model check
G90 ; use absolute coordinates
M83 ; extruder relative mode
M104 S170 ; set extruder temp for bed leveling
M140 S60 ; set bed temp
M109 R170 ; wait for bed leveling temp
M190 S60 ; wait for bed temp
M204 T1250 ; set travel acceleration
G28 ; home all without mesh bed level
G29 ; mesh bed leveling 
M204 T2500 ; restore travel acceleration
M104 S215 ; set extruder temp
G92 E0
G1 Y-2 X179 F2400
G1 Z3 F720
M109 S215 ; wait for extruder temp

; intro line
G1 X170 F1000
G1 Z0.2 F720
G1 X110 E8 F900
G1 X40 E10 F700
G92 E0

M221 S95 ; set flow
G21 ; set units to millimeters
G90 ; use absolute coordinates
M83 ; use relative distances for extrusion

M900 K0.2 ; Filament gcode LA 1.5
; ; Filament gcode LA 1.0




M107
;LAYER_CHANGE
;Z:0.2
;HEIGHT:0.2
G1 E-3.2 F4200
G1 Z.4 F720
G1 X75.718 Y42.5 F9000
G1 Z.2 F720
G1 E3.2 F2400
M204 P600
;TYPE:Skirt/Brim
;WIDTH:0.42
G1 F1200
G3 X91.448 Y34.187 I14.305 J8.03 E.58959
G3 X106.253 Y48.492 I-1.477 J16.343 E.69774
G1 X111.858 Y92.198 E1.38159
G1 X111.877 Y137.716 E1.42719
G1 X111.485 Y139.023 E.04278
G1 X110.44 Y139.899 E.04275
G1 X109.5 Y140.093 E.03009
G1 X70.5 Y140.093 E1.22282
G1 X69.193 Y139.701 E.04278
G1 X68.317 Y138.655 E.04278
G1 X68.123 Y137.716 E.03006
G1 X68.123 Y92.5 E1.41772
G1 X73.875 Y47.636 E1.41819
G3 X75.688 Y42.553 I16.148 J2.894 E.16998
M204 P1000
G1 E-2.24 F4200
;WIPE_START
G1 F7200
G1 X75.718 Y42.5 E-.03375
G3 X76.609 Y41.087 I14.305 J8.03 E-.92625
;WIPE_END
G1 Z.4 F720
M486 S0
G1 X108.704 Y135.158 F9000
G1 Z.2 F720
G1 E3.2 F2400
M204 P600
;TYPE:Perimeter
;WIDTH:0.450279
G1 F1200
G1 X108.713 Y135.925 E.02598
;WIDTH:0.419999
G1 X108.713 Y136.529 E.01894
G1 X71.287 Y136.529 E1.17346
G1 X71.287 Y135.925 E.01894
;WIDTH:0.444381
G1 X71.287 Y120.165 E.52609
;WIDTH:0.419999
G1 X71.287 Y92.639 E.86306
G1 X76.379 Y78.716 E.46482
;WIDTH:0.460466
G1 X76.478 Y78.505 E.00809
;WIDTH:0.500933
G1 X76.576 Y78.294 E.00886
;WIDTH:0.541399
G2 X76.782 Y77.753 I-2.606 J-1.301 E.02403
;WIDTH:0.515649
G1 X76.889 Y77.423 E.01364
;WIDTH:0.489898
G1 X77.116 Y76.754 E.02626
;WIDTH:0.456416
G1 X77.481 Y75.734 E.03725
;WIDTH:0.447772
G1 X77.967 Y74.603 E.04144
;WIDTH:0.444079
G1 X78.294 Y73.98 E.02347
;WIDTH:0.443903
G1 X78.648 Y73.387 E.02303
;WIDTH:0.44142
G1 X79.04 Y72.801 E.02336
;WIDTH:0.442266
G3 X79.907 Y71.693 I11.739 J8.294 E.04674
;WIDTH:0.444097
G3 X81.408 Y70.218 I10.234 J8.912 E.07027
;WIDTH:0.446108
G3 X83.303 Y68.894 I9.199 J11.155 E.07758
;WIDTH:0.449855
G3 X84.801 Y68.15 I8.668 J15.569 E.05662
;WIDTH:0.44415
G1 X85.88 Y67.755 E.03833
;WIDTH:0.442269
G3 X87.238 Y67.392 I4.385 J13.692 E.0467
;WIDTH:0.444099
G3 X88.64 Y67.17 I2.93 J13.944 E.04737
;WIDTH:0.443896
G1 X89.788 Y67.104 E.03834
;WIDTH:0.442266
G3 X91.888 Y67.238 I.155 J14.105 E.06994
;WIDTH:0.444148
G3 X94.986 Y68.068 I-1.833 J13.037 E.10727
;WIDTH:0.446102
G3 X96.088 Y68.563 I-4.968 J12.535 E.04051
;WIDTH:0.44984
G3 X97.5 Y69.397 I-8.261 J15.601 E.05551
;WIDTH:0.447874
G1 X98.266 Y69.959 E.03199
;WIDTH:0.443904
G1 X98.812 Y70.405 E.02351
;WIDTH:0.447874
G3 X100.09 Y71.686 I-10.884 J12.141 E.06096
;WIDTH:0.446108
G3 X100.844 Y72.628 I-11.534 J9.996 E.04046
;WIDTH:0.449822
G3 X101.61 Y73.816 I-13.481 J9.533 E.04784
;WIDTH:0.441416
G1 X101.944 Y74.437 E.02336
;WIDTH:0.441047
G1 X102.247 Y75.073 E.02332
;WIDTH:0.444284
G1 X102.519 Y75.72 E.02342
;WIDTH:0.448253
G1 X102.754 Y76.37 E.0233
;WIDTH:0.470379
G1 X102.981 Y77.024 E.02461
;WIDTH:0.510811
G1 X103.201 Y77.683 E.02703
;WIDTH:0.550658
G2 X103.516 Y78.541 I5.349 J-1.479 E.03863
;WIDTH:0.507105
G1 X103.611 Y78.738 E.00844
;WIDTH:0.463552
G1 X103.706 Y78.934 E.00762
;WIDTH:0.419999
G1 X108.713 Y92.639 E.45749
G1 X108.713 Y93.627 E.03098
G1 X108.713 Y120.165 E.83208
;WIDTH:0.444381
G1 X108.701 Y134.821 E.48924
;WIDTH:0.450279
G1 X108.704 Y135.098 E.00938
M204 P1000
G1 E-2.24 F4200
;WIPE_START
G1 F7200
G1 X108.704 Y135.158 E-.03325
G1 X108.713 Y135.925 E-.42508
G1 X108.713 Y136.529 E-.33472
G1 X108.412 Y136.529 E-.16695
;WIPE_END
G1 Z.4 F720
G1 X89.097 Y66.743 F9000
G1 Z.2 F720
G1 E3.2 F2400
M204 P600
;TYPE:External perimeter
;WIDTH:0.419999
G1 F1200
G3 X102.875 Y75.56 I.903 J13.763 E.54902
G1 X109.09 Y92.573 E.56791
G1 X109.09 Y93.627 E.03305
G1 X109.09 Y136.906 E1.35698
G1 X70.91 Y136.906 E1.19711
G1 X70.91 Y92.573 E1.39003
G1 X77.214 Y75.334 E.57552
G3 X89.037 Y66.748 I12.786 J5.172 E.48283
M204 P1000
G1 E-2.24 F4200
;WIPE_START
G1 F7200
G1 X89.097 Y66.743 E-.03337
G3 X90.768 Y66.735 I.903 J13.763 E-.92663
;WIPE_END
G1 Z.4 F720
G1 X86.417 Y92.981 F9000
G1 Z.2 F720
G1 E3.2 F2400
M204 P600
;TYPE:Perimeter
G1 F1200
G3 X84.121 Y92.08 I3.579 J-12.487 E.07745
G3 X77.108 Y78.932 I5.895 J-11.589 E.49753
;WIDTH:0.458441
G1 X77.122 Y78.705 E.00786
;WIDTH:0.496882
G1 X77.137 Y78.478 E.00859
;WIDTH:0.535323
G3 X77.307 Y77.586 I4.089 J.319 E.03726
;WIDTH:0.492573
G1 X77.494 Y76.93 E.0255
;WIDTH:0.458146
G1 X77.506 Y76.891 E.00141
;WIDTH:0.456416
G1 X77.857 Y75.866 E.03725
;WIDTH:0.443914
G1 X78.306 Y74.825 E.0378
;WIDTH:0.444098
G3 X78.97 Y73.625 I13.421 J6.643 E.04577
;WIDTH:0.441064
G1 X79.345 Y73.058 E.0225
;WIDTH:0.442442
G3 X80.181 Y71.983 I12.314 J8.727 E.04526
;WIDTH:0.443919
G1 X80.639 Y71.481 E.02266
;WIDTH:0.444098
G3 X82.166 Y70.129 I9.833 J9.566 E.0681
;WIDTH:0.442264
G3 X83.885 Y69.031 I8.219 J10.979 E.06779
;WIDTH:0.444153
G1 X84.898 Y68.545 E.03748
;WIDTH:0.449842
G3 X86.423 Y68.006 I8.156 J20.65 E.05474
;WIDTH:0.44608
G3 X87.952 Y67.664 I4.425 J16.193 E.05254
;WIDTH:0.4441
G1 X88.626 Y67.574 E.02268
;WIDTH:0.447781
G3 X90.229 Y67.506 I1.604 J18.813 E.05403
;WIDTH:0.446108
G3 X92.465 Y67.737 I-.358 J14.377 E.07544
;WIDTH:0.444098
G3 X93.786 Y68.065 I-3.125 J15.429 E.04542
;WIDTH:0.449844
G3 X95.291 Y68.629 I-7.182 J21.425 E.05439
;WIDTH:0.446102
G1 X95.902 Y68.921 E.0227
;WIDTH:0.44984
G1 X97.058 Y69.586 E.04512
;WIDTH:0.447874
G3 X98.517 Y70.68 I-10.198 J15.123 E.06143
;WIDTH:0.443902
G1 X99.018 Y71.14 E.02268
;WIDTH:0.447873
G3 X100.101 Y72.322 I-12.964 J12.963 E.054
;WIDTH:0.446108
G1 X100.515 Y72.862 E.02281
;WIDTH:0.449822
G1 X101.243 Y73.979 E.04511
;WIDTH:0.441179
G1 X101.574 Y74.586 E.0229
;WIDTH:0.4414
G1 X101.868 Y75.2 E.02256
;WIDTH:0.443902
G1 X102.13 Y75.828 E.02269
;WIDTH:0.447514
G1 X102.36 Y76.468 E.02288
;WIDTH:0.468517
G1 X102.564 Y77.118 E.02411
;WIDTH:0.507696
G1 X102.743 Y77.775 E.02632
;WIDTH:0.536471
G1 X102.819 Y78.108 E.01402
;WIDTH:0.565245
G3 X102.902 Y78.67 I-1.692 J.536 E.02478
;WIDTH:0.51683
G1 X102.908 Y78.899 E.00903
;WIDTH:0.468415
G1 X102.914 Y79.128 E.0081
;WIDTH:0.419999
G3 X86.475 Y92.998 I-12.918 J1.366 E.79448
M73 P0 R97
M204 P1000
G1 X86.475 Y92.998 F9000
G1 X86.353 Y92.569
M204 P600
;TYPE:External perimeter
G1 F1200
G3 X84.281 Y91.739 I3.643 J-12.082 E.07008
G3 X101.431 Y85.825 I5.72 J-11.236 E1.8489
G3 X86.41 Y92.586 I-11.435 J-5.338 E.56272
M73 P1 R97
M204 P1000
G1 E-2.24 F4200
;WIPE_START
G1 F7200
G1 X86.353 Y92.569 E-.03296
G3 X84.788 Y91.982 I3.641 J-12.083 E-.92704
;WIPE_END
G1 Z.4 F720
G1 X86.209 Y106.375 F9000
G1 Z.2 F720
G1 E3.2 F2400
M204 P600
;TYPE:Perimeter
G1 F1200
G3 X89.261 Y105.254 I3.842 J5.745 E.10291
G3 X91.266 Y105.333 I.705 J7.611 E.0631
G3 X85.66 Y106.782 I-1.267 J6.664 E1.14889
G3 X86.16 Y106.408 I4.391 J5.338 E.01958
M204 P1000
G1 X86.16 Y106.408 F9000
G1 X86.147 Y106.88
M204 P600
;TYPE:External perimeter
G1 F1200
G3 X89.32 Y105.626 I3.901 J5.234 E.10823
G3 X91.213 Y105.706 I.643 J7.242 E.05958
G3 X85.887 Y107.084 I-1.214 J6.291 E1.084
G3 X86.099 Y106.916 I4.161 J5.03 E.00848
M204 P1000
G1 E-2.24 F4200
;WIPE_START
G1 F7200
G1 X86.147 Y106.88 E-.03325
G3 X87.6 Y106.062 I3.902 J5.233 E-.92675
;WIPE_END
G1 Z.4 F720
G1 X107.779 Y135.377 F9000
G1 Z.2 F720
G1 E3.2 F2400
M204 P600
;TYPE:Perimeter
G1 F1200
G1 X107.721 Y135.387 E.00185
G1 X72.279 Y135.387 E1.11126
G1 X72.091 Y135.355 E.00598
;WIDTH:0.45028
G1 X71.707 Y134.922 E.0196
G1 X71.701 Y134.821 E.00343
;WIDTH:0.444381
G1 X71.701 Y120.944 E.46324
G1 X71.939 Y120.491 E.01708
;WIDTH:0.419999
G1 X72.279 Y120.378 E.01123
G1 X81.924 Y120.378 E.30241
G1 X107.721 Y120.378 E.80885
G1 X108.061 Y120.491 E.01123
;WIDTH:0.444381
G1 X108.299 Y120.944 E.01708
G1 X108.299 Y134.821 E.46324
;WIDTH:0.450279
G1 X108.293 Y134.922 E.00343
G1 X107.909 Y135.355 E.0196
;WIDTH:0.419999
G1 X107.838 Y135.367 E.00226
M204 P1000
G1 X107.838 Y135.367 F9000
G1 X107.721 Y134.999
M204 P600
;TYPE:External perimeter
G1 F1200
G1 X72.279 Y135.01 E1.11126
G1 X72.216 Y134.999 E.00201
G1 X72.09 Y134.821 E.00684
G1 X72.09 Y120.944 E.4351
G3 X72.279 Y120.755 I.221 J.032 E.00898
G1 X81.924 Y120.755 E.30241
G1 X107.721 Y120.755 E.80885
G3 X107.91 Y120.944 I-.032 J.221 E.00898
G1 X107.91 Y134.821 E.4351
G1 X107.784 Y134.999 E.00684
G1 X107.781 Y134.999 E.00009
M204 P1000
G1 X107.781 Y134.999 F9000
G1 X108.16 Y135.298
M204 P600
;TYPE:Solid infill
;WIDTH:0.422077
G1 F1200
G1 X108.36 Y135.498 E.00892
G1 X108.374 Y136.048 E.01735
G1 X108.006 Y135.68 E.01641
G3 X107.516 Y135.726 I-.412 J-1.742 E.01557
G1 X107.979 Y136.189 E.02064
G1 X107.443 Y136.189 E.0169
G1 X106.98 Y135.726 E.02064
G1 X106.444 Y135.726 E.0169
G1 X106.906 Y136.189 E.02062
G1 X106.37 Y136.189 E.0169
G1 X105.907 Y135.726 E.02064
G1 X105.371 Y135.726 E.0169
G1 X105.834 Y136.189 E.02064
G1 X105.298 Y136.189 E.0169
G1 X104.835 Y135.726 E.02064
G1 X104.299 Y135.726 E.0169
G1 X104.762 Y136.189 E.02064
G1 X104.225 Y136.189 E.01693
G1 X103.763 Y135.726 E.02062
G1 X103.226 Y135.726 E.01693
G1 X103.689 Y136.189 E.02064
G1 X103.153 Y136.189 E.0169
G1 X102.69 Y135.726 E.02064
G1 X102.154 Y135.726 E.0169
G1 X102.617 Y136.189 E.02064
G1 X102.081 Y136.189 E.0169
G1 X101.618 Y135.726 E.02064
G1 X101.081 Y135.726 E.01693
G1 X101.544 Y136.189 E.02064
G1 X101.008 Y136.189 E.0169
G1 X100.545 Y135.726 E.02064
G1 X100.009 Y135.726 E.0169
G1 X100.472 Y136.189 E.02064
G1 X99.936 Y136.189 E.0169
G1 X99.473 Y135.726 E.02064
G1 X98.937 Y135.726 E.0169
G1 X99.399 Y136.189 E.02062
G1 X98.863 Y136.189 E.0169
G1 X98.4 Y135.726 E.02064
G1 X97.864 Y135.726 E.0169
G1 X98.327 Y136.189 E.02064
G1 X97.791 Y136.189 E.0169
G1 X97.328 Y135.726 E.02064
G1 X96.792 Y135.726 E.0169
G1 X97.255 Y136.189 E.02064
G1 X96.718 Y136.189 E.01693
G1 X96.256 Y135.726 E.02062
G1 X95.719 Y135.726 E.01693
G1 X96.182 Y136.189 E.02064
G1 X95.646 Y136.189 E.0169
G1 X95.183 Y135.726 E.02064
G1 X94.647 Y135.726 E.0169
G1 X95.11 Y136.189 E.02064
G1 X94.574 Y136.189 E.0169
G1 X94.111 Y135.726 E.02064
G1 X93.575 Y135.726 E.0169
G1 X94.037 Y136.189 E.02062
G1 X93.501 Y136.189 E.0169
G1 X93.038 Y135.726 E.02064
G1 X92.502 Y135.726 E.0169
G1 X92.965 Y136.189 E.02064
G1 X92.429 Y136.189 E.0169
G1 X91.966 Y135.726 E.02064
G1 X91.43 Y135.726 E.0169
G1 X91.893 Y136.189 E.02064
G1 X91.356 Y136.189 E.01693
G1 X90.894 Y135.726 E.02062
G1 X90.357 Y135.726 E.01693
G1 X90.82 Y136.189 E.02064
G1 X90.284 Y136.189 E.0169
G1 X89.821 Y135.726 E.02064
G1 X89.285 Y135.726 E.0169
G1 X89.748 Y136.189 E.02064
G1 X89.212 Y136.189 E.0169
G1 X88.749 Y135.726 E.02064
G1 X88.212 Y135.726 E.01693
G1 X88.675 Y136.189 E.02064
G1 X88.139 Y136.189 E.0169
G1 X87.676 Y135.726 E.02064
G1 X87.14 Y135.726 E.0169
G1 X87.603 Y136.189 E.02064
G1 X87.067 Y136.189 E.0169
G1 X86.604 Y135.726 E.02064
G1 X86.068 Y135.726 E.0169
G1 X86.53 Y136.189 E.02062
G1 X85.994 Y136.189 E.0169
G1 X85.531 Y135.726 E.02064
G1 X84.995 Y135.726 E.0169
G1 X85.458 Y136.189 E.02064
G1 X84.922 Y136.189 E.0169
G1 X84.459 Y135.726 E.02064
G1 X83.923 Y135.726 E.0169
G1 X84.386 Y136.189 E.02064
G1 X83.849 Y136.189 E.01693
G1 X83.387 Y135.726 E.02062
G1 X82.85 Y135.726 E.01693
G1 X83.313 Y136.189 E.02064
G1 X82.777 Y136.189 E.0169
G1 X82.314 Y135.726 E.02064
G1 X81.778 Y135.726 E.0169
G1 X82.241 Y136.189 E.02064
G1 X81.705 Y136.189 E.0169
G1 X81.242 Y135.726 E.02064
G1 X80.706 Y135.726 E.0169
G1 X81.168 Y136.189 E.02062
G1 X80.632 Y136.189 E.0169
G1 X80.169 Y135.726 E.02064
G1 X79.633 Y135.726 E.0169
G1 X80.096 Y136.189 E.02064
G1 X79.56 Y136.189 E.0169
G1 X79.097 Y135.726 E.02064
G1 X78.561 Y135.726 E.0169
G1 X79.024 Y136.189 E.02064
G1 X78.487 Y136.189 E.01693
G1 X78.024 Y135.726 E.02064
G1 X77.488 Y135.726 E.0169
G1 X77.951 Y136.189 E.02064
G1 X77.415 Y136.189 E.0169
G1 X76.952 Y135.726 E.02064
G1 X76.416 Y135.726 E.0169
G1 X76.879 Y136.189 E.02064
G1 X76.342 Y136.189 E.01693
G1 X75.88 Y135.726 E.02062
G1 X75.343 Y135.726 E.01693
G1 X75.806 Y136.189 E.02064
G1 X75.27 Y136.189 E.0169
G1 X74.807 Y135.726 E.02064
G1 X74.271 Y135.726 E.0169
G1 X74.734 Y136.189 E.02064
G1 X74.198 Y136.189 E.0169
G1 X73.735 Y135.726 E.02064
G1 X73.199 Y135.726 E.0169
G1 X73.661 Y136.189 E.02062
G1 X73.125 Y136.189 E.0169
G1 X72.662 Y135.726 E.02064
G3 X72.097 Y135.698 I-.166 J-2.303 E.01788
G1 X72.589 Y136.189 E.02191
G1 X72.053 Y136.189 E.0169
G1 X71.473 Y135.609 E.02586
M204 P1000
G1 E-2.24 F4200
;WIPE_START
G1 F7200
G1 X72.053 Y136.189 E-.45455
G1 X72.589 Y136.189 E-.29703
G1 X72.323 Y135.923 E-.20842
;WIPE_END
G1 Z.4 F720
G1 X103.085 Y79.149 F9000
G1 Z.2 F720
G1 E3.2 F2400
M204 P600
;WIDTH:0.421724
G1 F1200
G1 X103.618 Y79.681 E.02372
G1 X103.926 Y80.526 E.02833
G1 X103.301 Y79.9 E.02786
G1 X103.323 Y80.458 E.01759
G1 X104.234 Y81.37 E.0406
G1 X104.543 Y82.214 E.02831
G1 X103.317 Y80.988 E.05461
G1 X103.286 Y81.492 E.0159
G1 X104.851 Y83.058 E.06973
G1 X105.16 Y83.902 E.02831
G1 X103.24 Y81.982 E.08553
G1 X103.179 Y82.457 E.01508
G1 X105.468 Y84.746 E.10196
G1 X105.776 Y85.59 E.0283
G1 X103.103 Y82.917 E.11907
G1 X103.011 Y83.36 E.01425
G1 X106.085 Y86.434 E.13693
G1 X106.393 Y87.278 E.0283
G1 X102.91 Y83.795 E.15515
G1 X102.794 Y84.215 E.01372
G1 X106.701 Y88.122 E.17404
G1 X107.01 Y88.966 E.02831
G1 X102.664 Y84.62 E.19359
G1 X102.524 Y85.016 E.01323
G1 X107.318 Y89.81 E.21355
G1 X107.627 Y90.655 E.02834
G1 X102.384 Y85.412 E.23355
G1 X102.226 Y85.79 E.0129
G1 X107.935 Y91.499 E.2543
G1 X108.243 Y92.343 E.0283
G1 X102.063 Y86.162 E.27531
G1 X101.885 Y86.52 E.01259
G1 X108.374 Y93.009 E.28905
G1 X108.374 Y93.544 E.01685
G1 X101.699 Y86.87 E.29731
G1 X101.5 Y87.207 E.01233
G1 X108.374 Y94.08 E.30618
G1 X108.374 Y94.616 E.01688
G1 X101.302 Y87.544 E.31502
G1 X101.097 Y87.875 E.01226
G1 X108.374 Y95.152 E.32415
G1 X108.374 Y95.687 E.01685
G1 X100.878 Y88.192 E.33388
G1 X100.652 Y88.501 E.01206
G1 X108.374 Y96.223 E.34397
G1 X108.374 Y96.759 E.01688
G1 X100.419 Y88.804 E.35435
G1 X100.173 Y89.094 E.01198
G1 X108.374 Y97.294 E.36529
G1 X108.374 Y97.83 E.01688
G1 X99.921 Y89.378 E.37651
G1 X99.669 Y89.661 E.01194
G1 X108.374 Y98.366 E.38776
G1 X108.374 Y98.901 E.01685
G1 X99.404 Y89.932 E.39954
G1 X99.129 Y90.193 E.01194
G1 X108.374 Y99.437 E.41179
G1 X108.374 Y99.973 E.01688
G1 X98.854 Y90.453 E.42406
G1 X98.567 Y90.702 E.01197
G1 X108.374 Y100.509 E.43685
G1 X108.374 Y101.044 E.01685
G1 X98.274 Y90.945 E.44988
G1 X97.968 Y91.175 E.01206
G1 X108.374 Y101.58 E.46351
G1 X108.374 Y102.116 E.01688
G1 X97.66 Y91.402 E.47725
G1 X97.336 Y91.614 E.0122
G1 X108.374 Y102.651 E.49166
G1 X108.374 Y103.187 E.01688
G1 X97.009 Y91.822 E.50625
G1 X96.681 Y92.03 E.01223
G1 X108.374 Y103.723 E.52086
G1 X108.374 Y104.259 E.01688
G1 X96.334 Y92.219 E.53632
G1 X95.985 Y92.405 E.01246
G1 X108.374 Y104.794 E.55186
G1 X108.374 Y105.33 E.01688
G1 X95.622 Y92.578 E.56803
G1 X95.252 Y92.744 E.01277
G1 X108.374 Y105.866 E.58451
G1 X108.374 Y106.401 E.01685
G1 X94.873 Y92.901 E.60137
G1 X94.482 Y93.045 E.01312
